X: 14404
T: Galway Belle, The
R: polka
M: 2/4
K: Eminor
|:E>F GA|Be B>B|AF DF|EF/E/ D2|
E>F GA|Be B>B|AF DF|1 E2 ED:|2 E2 E2||
ee B>B|ee B>B|AF DF|EF/E/ D2|
ee B>B|ee B>B|AF DF|E2 E2|
ee B>B|ee B>B|AF DF|EF/E/ D2|
E>F GA|Be B>B|AF DF|E2 E2||

